svg/monochrome/reddit-alien-alt.svg

<svg xmlns="http://www.w3.org/2000/svg" enable-background="new 0 0 24 24" viewBox="0 0 24 24"><path class="uim-tertiary" d="M18.89258,7c-1.66233-0.00793-3.00447-1.36011-3-3.02246c0.0124-1.65692,1.36566-2.99007,3.02258-2.97767c1.63067,0.0122,2.95301,1.32467,2.97742,2.95521v0.02246C21.89705,5.63989,20.55491,6.99207,18.89258,7z M11.7998,23c-6.168,0-11-3.0752-11-7s4.832-7,11-7s11,3.0752,11,7S17.96777,23,11.7998,23z"/><path class="uim-quaternary" d="M20.49896 8.29218c-1.63556-.69507-3.47937-.14093-4.49719 1.22247 2.95215.75647 5.22406 2.29492 6.22827 4.23462.09949-.16132.19427-.32599.26874-.50116C23.31506 11.32733 22.41974 9.10846 20.49896 8.29218zM11.7998 9c.39105 0 .77649.01288 1.15594.03705l.85577-5.70508 2.08734.70984c-.00043-.02191-.00635-.0423-.00629-.06427.00519-.69354.25482-1.32227.65375-1.82739l-3.22406-1.09644c-.05725-.01959-.11621-.03394-.17609-.04291-.54572-.08136-1.05408.29504-1.13544.84076l-1.07648 7.17542C11.22058 9.01337 11.50714 9 11.7998 9zM7.59216 9.51593C7.50409 9.39874 7.41998 9.27838 7.31854 9.17188 5.87958 7.66144 3.48859 7.60345 1.97809 9.04242c-1.31464 1.25244-1.52649 3.2251-.61121 4.71161C2.36908 11.81329 4.64032 10.2735 7.59216 9.51593z"/><path class="uim-primary" d="M11.8418,19.5c-1.37306,0.12061-2.73663-0.31854-3.78125-1.21777c-0.39048-0.39102-0.39005-1.02455,0.00097-1.41504s1.02455-0.39005,1.41504,0.00097c0.68126,0.49982,1.52549,0.72535,2.36525,0.63184c0.84081,0.09332,1.68601-0.13252,2.3682-0.63281c0.39016-0.39134,1.02369-0.3923,1.41503-0.00214c0.39134,0.39016,0.3923,1.02369,0.00214,1.41503c-0.00103,0.00104-0.00207,0.00208-0.00311,0.00311C14.5785,19.18138,13.21495,19.62005,11.8418,19.5z M10,14.00207c0.00017-0.55229-0.4474-1.00014-0.99969-1.00031C8.44802,13.00159,8.00017,13.44917,8,14.00145c-0.00017,0.55229,0.44741,1.00014,0.99969,1.00031c0.00021,0,0.00041,0,0.00062,0C9.55208,15.00093,9.99917,14.55384,10,14.00207z M16,14.00207c0.00017-0.55229-0.4474-1.00014-0.99969-1.00031C14.44802,13.00159,14.00017,13.44917,14,14.00145c-0.00017,0.55229,0.44741,1.00014,0.99969,1.00031c0.00021,0,0.00041,0,0.00062,0C15.55208,15.00093,15.99917,14.55384,16,14.00207z"/></svg>

<svg xmlns="http://www.w3.org/2000/svg" enable-background="new 0 0 24 24" viewBox="0 0 24 24"><path class="uim-tertiary" d="M18.893 7a3.014 3.014 0 0 1-3-3.022 3 3 0 0 1 6-.023v.023a3.014 3.014 0 0 1-3 3.022zM11.8 23c-6.168 0-11-3.075-11-7s4.832-7 11-7 11 3.075 11 7-4.832 7-11 7z"/><path class="uim-quaternary" d="M20.499 8.292a3.772 3.772 0 0 0-4.497 1.223c2.952.756 5.224 2.295 6.228 4.234.1-.161.194-.326.269-.5a3.779 3.779 0 0 0-2-4.957zM11.8 9c.39 0 .776.013 1.156.037l.856-5.705 2.087.71c0-.022-.006-.042-.006-.064a2.972 2.972 0 0 1 .653-1.828l-3.224-1.096a.999.999 0 0 0-1.312.798l-1.076 7.175c.287-.014.573-.027.866-.027zM7.592 9.516c-.088-.117-.172-.238-.273-.344a3.777 3.777 0 0 0-5.952 4.582c1.002-1.94 3.273-3.48 6.225-4.238z"/><path class="uim-primary" d="M11.842 19.5a5.11 5.11 0 0 1-3.781-1.218 1 1 0 0 1 1.416-1.414c.68.5 1.525.726 2.365.632a3.375 3.375 0 0 0 2.368-.633 1 1 0 1 1 1.414 1.416 5.12 5.12 0 0 1-3.782 1.217zM10 14.002a1 1 0 1 0-1 1c.552-.001 1-.448 1-1zm6 0a1 1 0 1 0-1 1c.552-.001 1-.448 1-1z"/></svg>
